X: 7271
T: Clarinet
R: polka
M: 2/4
K: Gmajor
|:DC|B,DGB DGBd|B2B2 B2Bd|B2Bd B2Bd|dcAF D2(3DED|
CDFA DFAc|f2f2 f2ec|1 f2ec f2ec|edBG D2:|2 d2fe dcBA|G2 g2g2||
|:zA|(3ABA ^GA BAGA|FAdf a4|fagf egfe|dfe^c d^cBA|
(3ABA ^GA BAGA|FAdf a4|fagf egfe|d2f2 d2:|
|:DC|B,DGB DGBd|B2B2 B2Bd|B2Bd B2Bd|dcAF D2(3DED|
CDFA DFAc|f2f2 f2ec|1 f2ec f2ec|edBG D2:|2 d2fe dcBA|G2 g2g2||
|:g2|g4z ecA|G4z2G=F|EGcG EGcG|DGBG =F2=f2|
=f4z dBA|1 G4z2 (3gag|b3=f b3=f|agec B2:|2 G4 z2A2|G2AG ^FGAB|c2e2 c2||

